packages/foundations/assets/icons/functional/images/file/upload_20.svg

<svg width="20" height="20" viewBox="0 0 20 20" fill="none" xmlns="http://www.w3.org/2000/svg">
<g clip-path="url(#clip0_185_1012)">
<path fill-rule="evenodd" clip-rule="evenodd" d="M6 18H14C15.6562 18 17 16.6562 17 15V13C17 12.4375 16.5312 12 16 12C15.4375 12 15 12.4375 15 13V15C15 15.5312 14.5625 16 14 16H6C5.4375 16 5 15.5312 5 15V13C5 12.4375 4.5625 12 4 12C3.4688 12 3 12.4375 3 13V15C3 16.6562 4.3438 18 6 18ZM9.3125 2.2812C9.5312 2.0938 9.7812 2 10.0312 2C10.2812 2 10.5 2.0938 10.7188 2.2812L13.7812 5.375C13.9375 5.5625 14 5.8125 14 6C14 6.5312 13.5625 7 13 7C12.6875 7 12.5 6.9062 12.2812 6.6875L11 5.4062V12C11 12.5312 10.5625 13 10 13C9.4375 13 9 12.5312 9 12V5.4062L7.7188 6.6875C7.5312 6.9062 7.2812 7 7.0312 7C6.5312 7 6 6.5625 6 5.9688C6 5.7188 6.0938 5.4688 6.2812 5.2812L9.3125 2.2812Z" fill="#1A1C1F"/>
</g>
<defs>
<clipPath id="clip0_185_1012">
<rect width="20" height="20" fill="white"/>
</clipPath>
</defs>
</svg>

<svg xmlns="http://www.w3.org/2000/svg" width="20" height="20" fill="none"><g clip-path="url(#a)"><path fill="#1A1C1F" fill-rule="evenodd" d="M6 18h8a3 3 0 0 0 3-3v-2c0-.562-.469-1-1-1-.562 0-1 .438-1 1v2c0 .531-.437 1-1 1H6c-.562 0-1-.469-1-1v-2c0-.562-.437-1-1-1-.531 0-1 .438-1 1v2a3 3 0 0 0 3 3M9.313 2.281C9.53 2.094 9.78 2 10.03 2s.469.094.688.281l3.062 3.094c.156.188.219.438.219.625 0 .531-.437 1-1 1-.312 0-.5-.094-.719-.312L11 5.406V12c0 .531-.437 1-1 1s-1-.469-1-1V5.406L7.719 6.688A.89.89 0 0 1 7.03 7C6.531 7 6 6.563 6 5.969c0-.25.094-.5.281-.688z" clip-rule="evenodd"/></g><defs><clipPath id="a"><path fill="#fff" d="M0 0h20v20H0z"/></clipPath></defs></svg>
